app/dist/common/images/mph-health-care-ag.svg

<svg height="18" viewBox="0 0 18 18" width="18" xmlns="http://www.w3.org/2000/svg"><path d="m0 0h18v18h-18z" fill="#f0f3fa"/><path d="m3 7h1v4h-1zm8.5 0h1v1.5h1.5v-1.5h1v4h-1v-1.75h-1.5v1.75h-1zm-5.5 1.72.6-.72h.4v3h-1z" fill="#a9a9a7"/><path d="m4.2 8.7v-1.27l.62.73.96-1.16h1.72l-.7.75h-.54l-1.44 1.69z" fill="#e9550f"/><path d="m8 7h1.63a1.37 1.37 0 0 1 0 2.75h-.63v1.25h-1zm1 .75h.38a.62.62 0 0 1 0 1.25h-.38z" fill="#a9a9a7" fill-rule="evenodd"/></svg>

<!-- by TradingView --><svg width="18" height="18" viewBox="0 0 18 18" xmlns="http://www.w3.org/2000/svg"><path fill="#F0F3FA" d="M0 0h18v18H0z"/><path fill="#A9A9A7" d="M3 7h1v4H3zM11.5 7h1v1.5H14V7h1v4h-1V9.25h-1.5V11h-1V7ZM6 8.72 6.6 8H7v3H6V8.72Z"/><path d="M4.2 8.7V7.43l.62.73L5.78 7H7.5l-.7.75h-.54L4.82 9.44 4.2 8.7Z" fill="#E9550F"/><path fill-rule="evenodd" d="M8 7h1.63a1.37 1.37 0 0 1 0 2.75H9V11H8V7Zm1 .75h.38a.62.62 0 0 1 0 1.25H9V7.75Z" fill="#A9A9A7"/></svg>
